Yaru++/actions/16/cards-deal.svg

<svg height="16" viewBox="0 0 16 16" width="16" xmlns="http://www.w3.org/2000/svg"><path d="m6.984375.5v9.537109l-2.3847656-.001953v.003906a51.355755 51.355755 0 0 0 1.40625 2.767579 61.453114 61.453114 0 0 0 1.5742187 2.693359 52.519139 52.519139 0 0 0 1.5898438-2.693359c.511365-.939305.9758121-1.861666 1.3906251-2.767579l-2.3847658-.001953v-9.537109z" fill="#808080"/></svg>

<svg xmlns="http://www.w3.org/2000/svg" width="16" height="16" version="1.1" viewBox="0 0 16 16">
 <defs>
  <style id="current-color-scheme" type="text/css">
   .ColorScheme-Text { color:#808080; }
  </style>
 </defs>
 <path style="fill:currentColor" class="ColorScheme-Text" d="M 6.984375 0.5 L 6.984375 10.037109 L 4.5996094 10.035156 L 4.5996094 10.039062 A 51.355755 51.355755 0 0 0 6.0058594 12.806641 A 61.453114 61.453114 0 0 0 7.5800781 15.5 A 52.519139 52.519139 0 0 0 9.1699219 12.806641 C 9.6812869 11.867336 10.145734 10.944975 10.560547 10.039062 L 8.1757812 10.037109 L 8.1757812 0.5 L 6.984375 0.5 z"/>
</svg>
